X: 39736
T: Thadelo's
R: barndance
M: 4/4
K: Dmajor
|:DF|A2 A2 AFDE|F2 F2 F3 G|A2 AB AFDF|E2 E^D E2 EF|
G2 G2 GFEF|G2 G2 G3 B|A2 AG F2 GE|D2 d2 D2:|
|:Ad|f2 df e2 ce|d2 A2 A3 d|B2 B2 A2 de|f2 df eAce|
f2 df e2 ce|d2 A2 d3 A|B2 B2 AFcd|e2 A2 d2:|

